!!!!SEGMENT: pl-kj--bj-muz-345-iii--001-001_sowinski-wojciech--les-charmes-de-la-campagne-op-11-no-1.krn
!!!cenid: 18xx:3587
!!!COM: Sowiński, Wojciech
!!!COM-rismID: pe30008543
!!!CDT: ~1803-1880/03/05
!!!CNT:
!!!GTL: Les charmes de la campagne op. 11
!!!OTL: [No. 1]
!!!OMV: 001
!!!PDT:
!!!AGN:
!!!YEC: Copyright 2022 Narodowy Instytut Fryderyka Chopina (https://polishscores.org)
!!!YEM: License CC-BY-4.0 (https://creativecommons.org/licenses/by/4.0)
!!!SMS-siglum: PL-Kj
!!!SMS-shelfmark: BJ Muz. 345 III
!!!SMS-shelfwork: 001-001 G
!!!SMS-variant:
!!!SMS-altvar:
!!!NIFC-rismSourceID:
!!!NIFC-rismChildID:
!!!NIFC-islandoraID: none
!!!URL-pdf-islandora:
!!!URL-scan: https://polona2.pl/item/les-charmes-de-la-campagne-polonaises-pastorales-pour-le-piano-op-11,ODU4Mzk3NjQ/11 @EN{Scan on Polona} @PL{Skany w portalu Polona}
!!!IIIF:
!!!ONB-nifc: UWAGA: Polonez No. 1, skany 3-7
!!!AIN: 2 piano
!!!key: C
**kern	**kern	**fing	**dynam
*group1	*group1	*	*
*part2	*part1	*	*
*staff2	*staff1	*	*
*I"Piano	*I"Piano	*	*
*	*I'	*	*
*Ipiano	*Ipiano	*	*
*ICklav	*ICklav	*	*
*clefF4	*clefG2	*	*
*k[]	*k[]	*	*
*C:	*C:	*	*
*M3/4	*M3/4	*	*
*>[A,A1,A,A2,B]	*>[A,A1,A,A2,B]	*	*>[A,A1,A,A2,B]
=1	=1	=1	=1
*^	*	*	*
*>A	*>A	*>A	*	*>A
*	*	*ped	*	*
!	!	!	!	!LO:DY:rj
8G/L	4C\	[4g [4e/	.	p
(<16G/L	.	.	.	.
16F#X/JJ)	.	.	.	.
8G/L	8C\L	8g]L 8e/]	.	.
8G/	8C\	8g 8e/	.	.
8G/	8C\	8g 8e/	.	.
8G/J	8C\J	8gJ 8e/	.	.
=2	=2	=2	=2	=2
8G/L	4C\	[4g [4e/	.	.
(<16G/L	.	.	.	.
16F#X/JJ)	.	.	.	.
8G/L	8C\L	8g]L 8e/]	.	.
8G/	8C\	8g 8e/	.	.
8G/	8C\	8g 8e/	.	.
8G/J	8C\J	8gJ 8e/	.	.
*	*	*Xped	*	*
=3!|:	=3!|:	=3!|:	=3!|:	=3!|:
8Fn/L	2C\	4.g^>/	.	p
8G/	.	.	.	.
8B/	.	.	.	.
8G/	.	(8ff\L	.	.
8F/	4C\	8ee\	.	.
8G/J	.	8dd\J)	.	.
=4	=4	=4	=4	=4
8E/L	2C\	16ee`\LL	.	.
.	.	32r	.	.
.	.	(32b\K	.	.
.	.	16qqdd/	.	.
8G/	.	16cc\	.	.
.	.	16a\JJ)	.	.
8c/	.	4.g^>/	.	.
8G/	.	.	.	.
8E/	4C\	.	.	.
8G/J	.	(16cc\LL	.	.
.	.	16ee\JJ)	.	.
!!linebreak:original
=5	=5	=5	=5	=5
!	!	!	!	!LO:HP:t=cres
8F/L	2C\	16dd`\LL	.	<
.	.	32r	.	.
.	.	(32b\K	.	.
.	.	16qqdd/	.	.
8G/	.	16cc\	.	.
.	.	16a\JJ)	.	.
8B/	.	8g`\L	.	.
8G/	.	(16dd\L	.	.
.	.	16ff\JJ)	.	.
8F/	4C\	8aa`\L	.	.
8G/J	.	(16gg\L	.	.
.	.	16ff\JJ)	.	.
=6	=6	=6	=6	=6
8E/L	2C\	2ee\	.	p
8G/	.	.	.	.
8c/	.	.	.	.
8G/	.	.	.	.
.	.	16qqee/	.	.
8E/	4C\	4g/	.	.
8G/J	.	.	.	.
*v	*v	*	*	*
=7	=7	=7	=7
8GL 8GG\	4.g/	.	f
16fL 16B 16G\	.	.	.
16fJJ 16B 16G\	.	.	.
8fL 8B 8G\	.	.	.
8f 8B 8G\	(16ff\LL	.	.
.	16ee\JJ	.	.
8f 8B 8G\	16gg\LL	.	.
.	16ff\	.	.
8fJ 8B 8G\	16ee\	.	.
.	16dd\JJ)	.	.
=8	=8	=8	=8
8cL 8C\	16ee`\LL	.	.
.	32r	.	.
.	(32b\K	.	.
.	16qqdd/	.	.
16eL 16c 16G\	16cc\	.	.
16eJJ 16c 16G\	16a\JJ)	.	.
8eL 8c 8G\	(8g\L	.	.
8e 8c 8G\	16a\L	.	<
.	16b\JJ	.	.
8e 8c 8G\	16cc\LL	.	.
.	16b\	.	.
8eJ 8c 8G\	16cc\	.	.
.	16ee\JJ)	.	[[
!!linebreak:original
=9	=9	=9	=9
8G 8GG\	8dd`\L	.	f
4f 4d 4G\	(16ggg\L	.	.
.	16fff\JJ	.	.
.	16ddd\LL	.	.
.	16bb\	.	.
8G\L	16gg\	.	.
.	16ff\JJ	.	.
8d 8B\	16dd\LL	.	>
.	16b\	.	.
8G\J	16g\	.	]]
.	16b\JJ)	.	.
=10	=10	=10	=10
8e 8c\	(8cc\L	.	p
4f 4B 4G\	16eeL 16g\)	.	.
.	16dd\JJ	.	.
!	!LO:TX:t=P:problem=diminuendolike accent	!	!
.	4dd 4g^<\	.	.
8fL 8B 8G\	.	.	.
8eJ 8c\	8cc 8g\	.	.
8r	8r	.	.
=11:|!|:	=11:|!|:	=11:|!|:	=11:|!|:
8DL 8DD/	(16dd\LL	.	f
.	16cc#X\	.	.
8D/J	16ee\	.	.
.	16cc#\JJ)	.	.
!	!	!LO:TX:t=P:problem=diminuendolike accent	!
8cL 8A 8F#X\	8dd`^<\L	.	.
8D\J	[8cccn\J	.	.
8cL 8A 8F#\	16ccc\LL]	.	.
.	(16ccc\	.	.
8D\J	16bb\	.	.
.	16aa\JJ)	.	.
=12	=12	=12	=12
8GG/L	16bb\LL	.	.
.	16ff#X\J	.	.
!	!LO:TX:t=P:problem=diminuendolike accent	!	!
8D/J	[8gg^<\J	.	.
8BL 8G\	8gg\L]	.	.
8D\J	16cc#X\L	.	.
!	!LO:TX:t=P:problem=diminuendolike accent	!	!
.	[16dd^<\JJ	.	.
8BL 8G\	8dd\L]	.	.
!	!LO:TX:t=P:problem=diminuendolike accent	!	!
8D\J	16b^<\L	.	.
.	16ee\JJ	.	.
!!linebreak:original
=13	=13	=13	=13
8DD/L	(16dd\LL	.	.
.	16b\J)	.	.
8D/J	[8cc\J	.	.
8cL 8A\	16cc\LL]	.	.
.	(16g#X\	.	.
8D\J	16a\	.	.
!	!LO:SIC:v:s=16f#\JJ	!	!
.	16f\JJ	.	.
8cL 8A\	16d/LL)	.	.
.	(16d/	.	.
8D\J	16e/	.	.
.	16f#X/JJ)	.	.
=14	=14	=14	=14
!	!LO:MOR:acc=none	!	!
8BL 8G\	(16gm</LL	.	p
.	16f#X/	.	.
8D\J	16g/	.	.
.	16any/JJ	.	.
8BL 8G\	16bm\LL	.	.
.	16a\	.	.
8D\J	16b\	.	.
.	16cc\JJ	.	.
8B 8G\	16dd\LL	.	.
.	16cc#X\	.	.
8r	16ee\	.	.
.	16dd\JJ)	.	.
=15	=15	=15	=15
!	!LO:TX:b:i:t=dolcissimo.	!	!
8D\	16dd\LL	.	.
*	*8va	*	*
.	16cccc\	.	rf
*clefG2	*	*	*
4cc 4a 4d/	(16cccc\	.	.
.	16bbb\JJ)	.	.
.	(16bbb\LL	.	.
.	16aaa\)	.	.
8ccL 8a 8e-X/	(16aaa\	.	.
.	16ggg\JJ)	.	.
8cc 8a 8d/	(16ggg\LL	.	.
!	!LO:SIC:v:s=16fff#\)	!	!
.	16fff\)	.	.
!	!LO:SIC:v:s=(16fff#\	!	!
8ccJ 8a 8c/	(16fff\	.	.
.	16eee\JJ)	.	.
=16	=16	=16	=16
*^	*	*	*
!LO:N:vis=2	!	!	!	!
8B/L	2B\	(16eee\LL	.	.
.	.	16ccc#X\	.	.
8g 8d/	.	16ddd\	1	.
.	.	16bbb\JJ	.	.
8g 8d/	.	16ggg\LL	4	.
.	.	16aa#X\	2	.
8gJ 8d/	.	16bb\	1	.
.	.	16eee\JJ	.	.
*clefF4	*	*	*	*
8G\L	4ryy	16ddd\LL	4	.
.	.	16ff#X\	.	.
8dJ 8B\	.	16gg\	.	.
.	.	16bb\JJ)	.	.
*v	*v	*	*	*
*	*X8va	*	*
!!linebreak:original
=17	=17	=17	=17
*^	*	*	*
!LO:N:vis=2	!	!LO:TX:a:t=loco	!	!
8D/L	[2D\	(16bb\LL	.	f
.	.	16aa\	.	.
8F#X/	.	16ccc\)	.	.
.	.	32r	.	.
.	.	(32ff#X\JJk	.	.
8A/	.	16aa\LL)	.	.
.	.	32r	.	.
.	.	(32cc\K	.	.
8d/	.	16ff#\)	.	.
.	.	32r	.	.
.	.	(32a\JJk	.	.
8A/	8D\L]	16cc/LL)	.	.
.	.	32r	.	.
.	.	(32f#X/K	.	.
8F#/J	8F#\J	16a/)	.	.
.	.	32r	.	.
.	.	32d/JJk	.	.
*v	*v	*	*	*
=18	=18	=18	=18
8G 8GG\	4.g^/	.	.
16dLL 16B 16G\	.	.	.
16dJJ 16B 16G\	.	.	.
8dL 8B 8G\	.	.	.
8d 8B 8G\	(8g/L	.	.
8d 8B 8G\	8b/	.	.
8dJ 8B 8G\	8dd/J)	.	.
=19	=19	=19	=19
8GL 8GG\	[4aa-X^<\	.	p
8B\	.	.	.
8d\	16aa-\LL]	.	.
.	(16gg\	.	.
8B\	16ff\	.	.
.	16dd\JJ	.	.
8G\	16b\LL	.	.
.	16g\	.	.
8B\J	16a-X\	.	.
.	16g\JJ)	.	.
=20	=20	=20	=20
8G\L	[4aa-X\	.	.
8c\	.	.	.
8e-X\	16aa-\LL]	.	.
.	(16gg\	.	.
!	!LO:SIC:v:s=16ee-\	!	!
8c\J	16ee\	.	.
.	16cc\JJ	.	.
8G\L	16cc\LL	.	.
.	16g\	.	.
8e-J 8c\	16a-X\	.	.
.	16g\JJ)	.	.
!!pagebreak:original
=21	=21	=21	=21
*^	*	*	*
!	!	!	!	!LO:HP:t=cres
8A-X/L	2F\	[4aa-X\	.	<
8B-X/	.	.	.	.
8d/	.	16aa-\LL]	.	.
.	.	(16ff\	.	.
!	!	!	!	!LO:HP:t=dim&colon;
8B-/	.	16ccc\	.	>
.	.	16bb-X\JJ	.	.
!	!	!LO:TUP:a:problem=klamra łukowa	!	!
8A-/	4F\	24bb-\LL	.	.
.	.	24aa-\	.	.
.	.	24gg\	.	.
8B-/J	.	24aa-\	.	.
.	.	24gg\	.	.
.	.	24ff\JJ)	.	.
=22	=22	=22	=22	=22
*	*	*ped	*	*
!	!	!LO:TX:t=P:problem=diminuendolike accent	!	!
8G/L	2E-X\	8.ff#X^\L	.	.
8B-X/	.	.	.	.
.	.	16gg\Jk	.	.
8e-X/	.	2gg\	.	.
8B-/	.	.	.	.
8G/	4E-\	.	.	.
8B-/J	.	.	.	.
*	*	*Xped	*	*
.	.	16qqgg/	.	.
=23	=23	=23	=23	=23
8F/L	2D\	(16gg\LL	.	.
.	.	16ggg\)	.	.
8G/	.	(16ggg\	.	.
.	.	16fff#X\JJ)	.	.
!	!	!LO:TX:b:i:t=espress&colon;	!	!
8Bn/	.	(16fff#\LL	.	.
.	.	16fffn\)	.	.
8G/	.	16fff\	.	.
.	.	16eee\JJ	.	.
8F/	4D\	(16eee\LL	.	.
.	.	16eee-X\)	.	.
8G/J	.	(16eee-\	.	.
.	.	16ddd\JJ)	.	.
=24	=24	=24	=24	=24
!	!	!	!	!LO:HP:t=cres
8E-X/L	2C\	(16ddd\LL	.	<
.	.	16bb\	.	.
8G/	.	16ccc\	.	.
.	.	16ggg\JJ)	.	.
8c/	.	(16eee-X\LL	.	.
.	.	16ff#X\	.	.
8G/	.	16gg\	.	.
.	.	16ccc\JJ)	.	.
8E-/	4C\	(16gg\LL	.	.
.	.	16dd\	.	.
8G/J	.	16ee-X\	.	.
.	.	16gg\JJ)	.	.
!!linebreak:original
=25	=25	=25	=25	=25
8C/L	2AA-X\	[4cc^\	.	.
8E-X/	.	.	.	.
8G-X/	.	16cc\LL]	.	.
.	.	(16dd\	.	.
8E-/	.	16ee-X\	.	.
.	.	16dd\JJ	.	.
8C/	4AA-\	16ff\LL	.	.
.	.	16ee-\	.	.
8E-/J	.	16dd\	.	.
.	.	16cc\JJ)	.	.
=26	=26	=26	=26	=26
!	!	!	!	!LO:DY:t=%s e legato
8BB/L	2GG\	(16bn\LL	.	p
.	.	16dd\	.	.
8D/	.	16aa-X\	.	.
.	.	16gg\JJ	.	.
8G/	.	16ff#X\LL	.	.
.	.	16gg\	.	.
8D/	.	16dd\	.	.
.	.	16ffn\JJ	.	.
8C/	4GG\	16ee-X\LL	.	.
.	.	16cc\	.	.
8E-X/J	.	16a\	.	.
.	.	16f#X\JJ)	.	.
=27	=27	=27	=27	=27
8BB/L	2GG\	(16g\LL	.	<
.	.	16b\	.	.
8D/	.	16dd\	.	.
.	.	16gg\JJ	.	.
8G/	.	16ff#X\LL	.	[[
.	.	16gg\	.	>
8D/	.	16ffn\	.	.
.	.	16dd\JJ	.	.
8C/	4GG\	16ee-X\LL	.	.
.	.	16cc\	.	.
8E-X/J	.	16a\	.	]]
.	.	16f#X\JJ)	.	.
*v	*v	*	*	*
=28	=28	=28	=28
*	*	*	*^
!	!	!	!LO:HP:b=2	!
4D 4GG/	(16g/LL	.	<	p
.	16g#X/	.	.	.
.	16a/	.	.	.
.	16a#X/JJ	.	[	.
!	!	!	!LO:HP:b=2	!
(4f 4d\	16b/LL	.	>	.
.	16cc/	.	.	.
!	!LO:TX:t=P:problem=extended text	!	!	!
!	!	!	!	!LO:HP:t=cres-cen-do
.	16cc#X/	.	.	<
.	16dd/JJ	.	.	.
4e-X 4c\)	16dd#X\LL	.	]]	.
.	16ee\	.	.	.
.	16ff\	.	.	.
.	16ff#X\JJ)	.	.	.
*	*	*	*v	*v
!!linebreak:original
=29	=29	=29	=29
!	!	!	!LO:HP:b=2
(4d 4B\	(16gg\LL	.	<
.	16gg#X\	.	.
.	16aa\	.	.
.	16aa#X\JJ	.	[
!	!	!	!LO:HP:b=2
4f 4d\	16bb\LL	.	>
.	16ccc\	.	.
.	16ccc#X\	.	.
.	16ddd\JJ	.	.
4e-X 4c\)	16ddd#X\LL	.	]
.	16eee\	.	.
.	16fff\	.	.
.	16fff#X\JJ)	.	.
=30	=30	=30	=30
4.d 4.B\	8ggg`\L	.	pp
.	16ggg\L	.	.
.	16gg\JJ	.	.
.	8ggg\L	.	.
(8BL 8G'\	16ggg\L	.	.
.	16gg\JJ	.	.
8c 8A'\	8ggg\L	.	.
8c#XJ 8A#X'\)	16ggg\L	.	.
.	16gg\JJ	.	.
=31	=31	=31	=31
4.d 4.B\	8ggg\L	.	.
.	16ggg\L	.	.
.	16gg\JJ	.	.
.	8ggg\L	.	.
(8c#XL 8A#X'\	16ggg\L	.	.
.	16gg\JJ	.	.
!	!LO:TX:b:i:t=sempre	!	!
8d 8B'\	8ggg\L	.	.
8eJ 8c#'\)	16ggg\L	.	.
.	16gg\JJ	.	.
=32	=32	=32	=32
!	!	!	!LO:HP:t=decres
4.f 4.d\	8ggg\L	.	>
.	16ggg\L	.	.
.	16gg\JJ	.	.
.	8ggg\L	.	.
(8eL 8c#X'\	16ggg\L	.	.
.	16gg\JJ	.	.
8f 8d'\	8ggg\L	.	.
8eJ 8c#'\)	16ggg\L	.	.
.	16gg\JJ	.	.
!!linebreak:original
=33	=33	=33	=33
4.f 4.d\	8ggg\L	.	ppp
.	16ggg\L	.	.
.	16gg\JJ	.	.
.	8ggg\L	.	.
(8eL 8c#X'\	16ggg\L	.	.
.	16gg\JJ	.	.
8f 8d'\	8ggg\L	.	.
8f#XJ 8d#X'\)	16ggg\L	.	.
.	16gg\JJ	.	.
=34	=34	=34	=34
*^	*	*	*
!	!	!	!	!LO:DY:t=rinf.
8Fn/L	2C\	4.g/	.	rf
8G/	.	.	.	.
8B/	.	.	.	.
8G/	.	(8ff\L	.	p
8F/	4C\	8ee\	.	.
8G/J	.	8dd\J)	.	.
=35	=35	=35	=35	=35
8E/L	2C\	16ee`\LL	.	.
.	.	32r	.	.
.	.	(32b\K	.	.
.	.	16qqdd/	.	.
8G/	.	16cc\	.	.
.	.	16a\JJ)	.	.
8c/	.	4.g/	.	.
8G/	.	.	.	.
8E/	4C\	.	.	.
8G/J	.	16cc\LL	.	.
.	.	16ee\JJ	.	.
=36	=36	=36	=36	=36
8F/L	2C\	16dd`\LL	.	.
.	.	32r	.	.
!	!	!	!	!LO:HP:t=cres
.	.	(32b\K	.	<
.	.	16qqdd/	.	.
8G/	.	16cc\	.	.
.	.	16a\JJ)	.	.
8B/	.	8g`\L	.	.
8G/	.	(16dd\L	.	.
.	.	16ff\JJ)	.	.
8F/	4C\	8aa\L	.	.
8G/J	.	(16gg\L	.	.
.	.	16ff\JJ)	.	p
!!linebreak:original
=37	=37	=37	=37	=37
8E/L	2C\	2ee\	.	.
8G/	.	.	.	.
8c/	.	.	.	.
8G/	.	.	.	.
8E/	4C\	(4ee\	.	.
8G/J	.	.	.	.
*v	*v	*	*	*
=38	=38	=38	=38
8G 8GG\	4.g/)	.	f
16fLL 16B 16G\	.	.	.
16fJJ 16B 16G\	.	.	.
8fL 8B 8G\	.	.	.
8f 8B 8G\	(16ff\LL	.	.
.	16ee\JJ	.	.
8f 8B 8G\	16gg\LL	.	.
.	16ff\	.	.
8fJ 8B 8G\	16ee\	.	.
.	16dd\JJ)	.	.
=39	=39	=39	=39
*>A1	*>A1	*	*>A1
!	!LO:TUP:a:problem=klamra łukowa	!	!
8cL 8E\	20ee\LL	.	.
.	20b\	.	.
.	20dd\	.	.
8G\	.	.	.
.	20cc\	.	.
.	20a\JJ	.	.
8e 8c\	(8g\L	.	.
8G\J	16a\L	.	.
.	16b\JJ	.	.
8eL 8c\	16cc\LL	.	.
.	16b\	.	.
8G\J	16cc\	.	.
.	16ee\JJ)	.	.
=40	=40	=40	=40
8G 8GG\	8dd`\L	.	f
4f 4d 4B 4G\	(16ggg\L	.	.
.	16fff\JJ	.	.
.	16ddd\LL	.	.
.	16bb\	.	.
8G\L	16gg\	.	.
.	16ff\JJ	.	.
8f 8d\	16dd\LL	.	.
.	16b\	.	.
8G\J	16g\	.	.
.	16b\JJ)	.	.
!!linebreak:original
=41	=41	=41	=41
8e 8c\	8cc\L	.	.
4f 4B 4G\	16eeL 16g\	.	.
.	16dd\JJ	.	.
.	(4dd 4g\	.	.
8fL 8B 8G\	.	.	.
8eJ 8c\	8cc 8g\)	.	.
8r	8r	.	.
=42:|!	=42:|!	=42:|!	=42:|!
*>A2	*>A2	*	*>A2
!	!LO:TUP:a:problem=klamra łukowa	!	!
8cL 8C\	20ee\LL	.	.
.	20b\	.	.
.	20dd\	.	.
8e 8c 8G\	.	.	.
.	20cc\	.	.
.	20a\JJ	.	.
!	!LO:TX:t=P:problem=diminuendolike accent	!	!
8e 8c 8G\	4g^>/	.	.
8eJ 8c 8G\	.	.	.
8EL 8EE\	4g#X/	.	.
8dJ 8B 8E\	.	.	.
=43	=43	=43	=43
!	!LO:TX:t=P:problem=diminuendolike accent	!	!
8F 8FF/	8a^\L	.	.
8F\L	(16b\L	.	.
.	16cc#X\JJ	.	.
8f 8d 8A\	16dd\LL	.	.
.	16ee\	.	.
8F\	16ff\	.	.
.	16ee\JJ	.	.
8f 8d 8A\	32dd\KLL)	.	.
*	*8va	*	*
.	16aaa\	.	.
.	32r	.	.
8F\J	(16fff\	.	.
.	16ddd\JJ)	.	.
=44	=44	=44	=44
.	16qqccc/	.	.
4e 4c 4G\	8cccc\L	.	.
.	16ggg\L	.	.
.	16eee\JJ	.	.
4f 4B 4G\	8ggg\L	.	.
.	16fff\L	.	.
.	16ddd\JJ	.	.
8e 8c\	8ccc\	.	.
*	*X8va	*	*
8r;	8r;	.	.
!!pagebreak:original
==45	==45	==45	==45
*>B	*>B	*	*>B
*k[b-]	*k[b-]	*	*
!	!LO:TX:a:B:t=Cantabile .	!	!
8F 8FF/	8bn\	.	p
*clefG2	*ped	*	*
8a 8f 8c/	4cc^\	.	.
8aL 8f 8c/	.	.	.
8a 8f 8c/	4ff^\	.	.
8a 8f 8c/	.	.	.
8aJ 8f 8c/	8gg^\	.	.
*clefF4	*	*	*
=46	=46	=46	=46
!	!LO:TX:t=P:problem=diminuendolike accent	!	!
8F 8FF/	8..gg#X^<\L	.	.
*clefG2	*	*	*
8a 8f 8c/	.	.	.
.	(32aa\Jkk	.	.
8aL 8f 8c/	2cc\)	.	.
8a 8f 8c/	.	.	.
8a 8f 8c/	.	.	.
8aJ 8f 8c/	.	.	.
*clefF4	*	*	*
=47	=47	=47	=47
8F/L	(8ccSSs\L	.	.
*	*Xped	*	*
.	.	.	.
*clefG2	*	*	*
8c/J	16ddny\L	.	<
.	16ee\JJ	.	.
8aL 8f/	16ff\LL	.	.
.	16gg\	.	.
8c/J	16aa\	.	.
.	16bb-\JJ	.	.
8aL 8f/	16ccc\LL	.	.
.	16bbn\	.	.
8c/J	16ddd\	.	.
.	16ccc\JJ)	.	[[
*clefF4	*	*	*
=48	=48	=48	=48
*^	*	*	*
*	*	*ped	*	*
!LO:N:vis=2	!	!	!	!
8C/L	2C\	4.gg^\	.	.
8c 8G 8E/	.	.	.	.
8c 8G 8E/	.	.	.	.
.	.	16qqaa/	.	.
8cJ 8G 8E/	.	(8gg\L	.	.
8C\L	4ryy	8ee\	.	.
8cJ 8G 8E\	.	8cc\J)	.	.
*	*	*Xped	*	*
*v	*v	*	*	*
!!linebreak:original
=49	=49	=49	=49
*	*ped	*	*
8F\L	8bn\	.	p
8fJ 8c 8A\	4cc\	.	.
8fL 8c 8A\	.	.	.
8f 8c 8A\	4ff\	.	.
8f 8c 8A\	.	.	.
8fJ 8c 8A\	8gg\	.	.
=50	=50	=50	=50
!	!LO:TX:t=P:problem=diminuendolike accent	!	!
8F\L	(8..gg#X^<\L	.	.
8fJ 8c 8A\	.	.	.
.	32aa\Jkk)	.	.
8fL 8c 8A\	2cc^<\	.	.
8f 8c 8A\	.	.	.
8f 8c 8A\	.	.	.
8F\J	.	.	.
=51	=51	=51	=51
*^	*	*	*
!LO:N:vis=2	!	!	!	!LO:HP:a
8G/L	2G\	(16aa\LL	.	>
.	.	16ggn\	.	.
8f 8Bn/	.	16bn\	.	.
.	.	16cc\JJ	.	.
8f 8B/	.	16dd\LL	.	.
.	.	16ee\	.	.
8fJ 8B/	.	16ff\	.	.
.	.	16gg\JJ	.	.
8G/L	4G\	16aa\LL	.	.
!	!	!LO:SIC:v:s=16bbn\	!	!
.	.	16bb-\	.	]]
8fJ 8B/	.	16ccc\	.	.
.	.	16ddd\JJ)	.	.
=52	=52	=52	=52	=52
8E/L	2C\	8ccc`\	.	.
8G/	.	4ccc^\	.	.
8c/	.	.	.	.
!	!	!	!	!LO:DY:rj
8G/	.	(8cc'\L	.	p
8E/	4C\	8cc'\	.	.
8G/J	.	8cc'\J)	.	.
*v	*v	*	*	*
!!linebreak:original
=53	=53	=53	=53
*	*ped	*	*
!	!	!	!LO:DY:rj
8F/L	8bn\	.	p
*clefG2	*	*	*
8aJ 8f 8c/	4cc^\	.	.
8aL 8f 8c/	.	.	.
8a 8f 8c/	4ff^\	.	.
8a 8f 8c/	.	.	.
8aJ 8f 8c/	8gg^\	.	.
*clefF4	*	*	*
=54	=54	=54	=54
!	!LO:TX:t=P:problem=diminuendolike accent	!	!
8F/L	(8..gg#X^<\L	.	.
*clefG2	*	*	*
8aJ 8f 8c/	.	.	.
.	32aa\Jkk)	.	.
8aL 8f 8c/	2aa\	.	.
8a 8f 8c/	.	.	.
8a 8f 8c/	.	.	.
8aJ 8f 8c/	.	.	.
*clefF4	*Xped	*	*
=55	=55	=55	=55
*^	*	*	*
!LO:N:vis=2	!	!	!	!
8A/L	2A\	4.aa^<\	.	.
8e 8c#X/	.	.	.	.
8e 8c#/	.	.	.	.
8eJ 8c#/	.	(16ggn\LL	.	.
.	.	16ff\JJ	.	.
8G/L	4G\	8ee\L	.	.
8eJ 8c#/	.	8aa\J)	.	.
=56	=56	=56	=56	=56
8F/L	4F\	(4dd\	.	.
8dJ 8A/	.	.	.	.
!	!	!	!	!LO:HP:t=dim&colon;
8E/L	4E\	4dd-X\	.	>
8B-J 8G/	.	.	.	.
4G 4E/	8Cn\L	4cc\)	.	.
.	8BB-\J	.	.	.
!!linebreak:original
=57	=57	=57	=57	=57
!LO:N:vis=2	!	!	!	!LO:DY:Bi:t=rinf&colon;
8AA/L	2AA\	(8ccSSs\L	.	rf
8F 8C/	.	16ddny\L	.	.
.	.	16ee\JJ	.	.
8F 8C/	.	16ff\LL	.	.
.	.	16gg\	.	.
8FJ 8C/	.	16aa\	.	.
.	.	16bb-\JJ	.	.
!	!	!	!	!LO:HP:t=cres
8AA/L	4AA\	16ccc\LL	.	<
.	.	16bbn\	.	.
8FJ 8C/	.	16ccc\	.	.
.	.	16ccc#X\JJ)	.	.
=58	=58	=58	=58	=58
!LO:N:vis=2	!	!LO:TX:t=P:problem=diminuendolike accent	!	!LO:HP:t=dim&colon; e
8BB-/L	2BB-\	8.eee^<\L	.	>
8G 8D/	.	.	.	.
.	.	16ddd\Jk	.	.
8G 8D/	.	(16cccn\LL	.	.
.	.	16bb-\	.	.
8GJ 8D/	.	16aa\	.	.
.	.	16gg\JJ	.	p
8BB-/L	4BB-\	16ff#X\LL	.	.
.	.	16gg\	.	.
8GJ 8D/	.	16bb-\	.	.
.	.	16dd\JJ)	.	.
=59	=59	=59	=59	=59
!LO:N:vis=2	!	!	!	!
8C/L	2C\	8gg\L	.	.
8A 8F/	.	[8ffn\J	.	pp
8A 8F/	.	16ff\LL]	.	.
.	.	(16ccc\	.	.
8AJ 8F/	.	16ddd\	.	.
.	.	16ccc\JJ)	.	.
8C/L	4C\	16ee^<\LL	.	.
.	.	(16ccc\	.	.
8B-J 8G/	.	16ddd\	.	.
.	.	16ccc\JJ)	.	.
*v	*v	*	*	*
=60	=60	=60	=60
*	*ped	*	*
8F 8FF/	2ff\	.	.
(8F\L	.	.	.
8A\	.	.	.
8c\	.	.	.
8A\	4r	.	.
8F\J)	.	.	.
*	*Xped	*	*
!!linebreak:original
==61	==61	==61	==61
!	!LO:TX:a:B:t=Agitato .	!	!
8C 8CC/	8ccc\	.	ff
16cLL 16B- 16G 16C\	4ddd-X^<\	.	.
16cJJ 16B- 16G 16C\	.	.	.
8cL 8B- 8G 8C\	.	.	.
8c 8B- 8G 8C\	(16ccc\LL	.	.
.	16bb-\JJ	.	.
8c 8B- 8G 8C\	16aa-X\LL	.	.
.	16gg\	.	.
8cJ 8B- 8G 8C\	16ff\	.	.
.	16ee\JJ)	.	.
=62	=62	=62	=62
8F 8FF/	8ff\	.	.
!	!	!	!LO:DY:b:Bi:t=rf.
16cLL 16A-X 16F\	4aa-X\	.	rf
16cJJ 16A- 16F\	.	.	.
8cL 8A- 8F\	.	.	.
8c 8A- 8F\	(16aa-\LL	.	.
.	16gg\JJ	.	.
8c 8A- 8F\	16ff\LL	.	.
.	16ee-X\	.	.
8cJ 8A- 8F\	16dd-X\	.	.
.	16cc\JJ)	.	.
=63	=63	=63	=63
*	*ped	*	*
!	!LO:TX:t=P:problem=ped nad pięciolinią	!	!
8C\L	8bn\L	.	.
!	!	!	!LO:DY:a
16dL 16G 16F 16C\	16ggL 16b 16f\	.	ff
16dJJ 16G 16F 16C\	16ggJJ 16b 16f\	.	.
8dL 8G 8F 8C\	8ggL 8b 8f\	.	.
8d 8G 8F 8C\	8gg 8b 8f\	.	.
8d 8G 8F 8C\	8gg 8b 8f\	.	.
8dJ 8G 8F 8C\	8ggJ 8b 8f\	.	.
*	*Xped	*	*
=64	=64	=64	=64
*	*ped	*	*
8C\L	8cc 8e/	.	.
8cJ 8G 8E\	4cc 4e/	.	.
8C\L	.	.	.
!	!LO:TX:b:i:t=perdend&colon;	!	!
8cJ 8G 8E\	4cc 4e/	.	.
8C\L	.	.	.
8cJ 8G 8E\	8cc 8e/	.	.
!!linebreak:original
=65	=65	=65	=65
*	*Xped	*	*
8CC/L	8cc\	.	.
8CJ 8GG 8EE/	4dd-X^\	.	.
8CC/L	.	.	.
8CJ 8GG 8EE/	(16cc/LL	.	.
.	16b-/JJ	.	.
8CC/L	16a-X/LL	.	.
.	16g/	.	.
8CJ 8GG 8EE/	16f/	.	.
.	16e/JJ)	.	.
=66	=66	=66	=66
8CC/L	8f/	.	.
!	!	!	!LO:DY:b:Bi:t=rf.
8CJ 8AA-X 8FF/	4a-X/	.	rfz
8CC/L	.	.	.
8CJ 8AA- 8FF/	(16a-/LL	.	.
.	16g/JJ	.	.
8CC/L	16f/LL	.	.
.	16e-X/	.	.
8CJ 8AA- 8FF/	16d-X/	.	.
.	16c/JJ)	.	.
=67	=67	=67	=67
*	*ped	*	*
8GGG\L	8Bn/L	.	ff
16GGL 16DD 16GGG\	16gL 16B 16F</	.	.
16GGJJ 16DD 16GGG\	16gJJ 16B 16F</	.	.
8GGL 8DD 8GGG\	8gL 8B 8F</	.	.
8GG 8DD 8GGG\	8g 8B 8F</	.	.
8GG 8DD 8GGG\	8g 8B 8F</	.	.
8GGJ 8DD 8GGG\	8gJ 8B 8F</	.	.
*	*Xped	*	*
=68	=68	=68	=68
8CC\	8cL 8E</	.	.
!	!	!	!LO:DY:t=%s e legato
.	16qqd/	.	p
8GL 8E 8C\	(16c/L	.	.
.	16Bn/JJ	.	.
8G 8E 8C\	16c/LL	.	.
.	16d/	.	.
8GJ 8E 8C\	16e/	.	.
.	16f/JJ	.	.
8GG\L	16f#X/LL	.	.
.	16g/	.	.
!LO:SIC:v:n=3:s=8BBn\	!	!	!
8GJ 8D 8BB-\	16a/	.	.
.	16g/JJ)	.	.
!!pagebreak:original
=69	=69	=69	=69
8C\L	(16e/LL	.	.
.	16g/	.	.
8GJ 8E\	16ee/	.	.
.	16dd/JJ	.	.
8C\L	16cc/LL	.	.
.	16bn/	.	.
8GJ 8E\	16a/	.	.
.	16g/JJ	.	.
8GG\L	16f#X/LL	.	.
.	16g/	.	.
!LO:SIC:v:n=3:s=8BBn\	!	!	!
8GJ 8D 8BB-\	16fn/	.	.
.	16d/JJ)	.	.
=70	=70	=70	=70
*^	*	*	*
!LO:N:vis=2	!	!	!	!
8C/L	2C\	(16e/LL	.	.
.	.	16g/	.	.
.	.	16qqdd/	.	.
8G 8E/	.	16cc/	.	.
.	.	16bn/JJ	.	.
8G 8E/	.	16cc\LL	.	.
.	.	16ee\	.	.
8GJ 8E/	.	16dd\	.	.
.	.	16cc\JJ	.	.
8GG/L	4GG\	16b\LL	.	.
.	.	16dd\	.	.
8GJ 8D 8BB-/	.	16aa\	.	.
.	.	16gg\JJ)	.	.
=71	=71	=71	=71	=71
!LO:N:vis=2	!	!	!	!
8C/L	2C\	(16gg\LL	.	pp
.	.	16ee\	.	.
8G 8E/	.	16eee\	.	.
.	.	16ddd\JJ	.	.
8G 8E/	.	16ccc\LL	.	.
.	.	16bbn\	.	.
8GJ 8E/	.	16aa\	.	.
.	.	16gg\JJ	.	.
8GG\L	4ryy	16ff#X\LL	.	.
.	.	16gg\	.	.
!LO:S:s=1:note:problem=note-level slur	!	!	!	!
!LO:S:s=2:note:problem=note-level slur	!	!	!	!
[8GJ (8F (>8D\	.	16aa\	.	.
.	.	16bbn\JJ)	.	.
*v	*v	*	*	*
!!linebreak:original
=72	=72	=72	=72
!LO:S:s=1:note:problem=note-level slur	!	!	!
!LO:S:s=2:note:problem=note-level slur	!	!	!
8G] 8E) 8C\)	16ccc`\LL	.	.
.	(16ff#X\	.	.
4e 4c 4G\	16gg\	.	.
.	16gg#X\JJ	.	.
.	16aa\LL	.	.
.	16ggn\	.	.
8f#XL 8c 8A\	16ff#X\	.	.
.	16ddd#X\JJ	.	.
!LO:SIC:v:n=2:s=8Bn\	!	!	!
8fn 8B-\	16ffn\LL	.	.
.	16dddn\	.	.
8dJ 8G\	16dd\	.	.
.	16bbn\JJ)	.	.
=73	=73	=73	=73
8e 8c\	16ccc`\LL	.	.
.	(16ff#X\	.	.
4e 4c 4G\	16gg\	.	.
.	16gg#X\JJ	.	.
.	16aa\LL	.	.
.	16ggn\	.	.
8f#XL 8c 8A\	16ff#X\	.	.
.	16ddd#X\JJ	.	.
!LO:SIC:v:n=2:s=8Bn\	!	!	!
8fn 8B-\	16ffn\LL	.	.
.	16dddn\	.	.
8dJ 8G\	16dd\	.	.
.	16bbn\JJ)	.	.
=74	=74	=74	=74
8e 8c\	16ccc`\LL	.	.
.	(16ee\	.	.
8r	16ff\	.	.
.	16gg\JJ	.	.
4r	16gg#X\LL	.	pp
.	16aa\	.	.
.	16aa#X\	.	.
.	16bbn\JJ	.	.
4r	16ccc\LL	.	.
.	16ccc#X\	.	.
.	16ddd\	.	.
.	16ddd#X\JJ)	.	.
!!linebreak:original
=75	=75	=75	=75
*^	*	*	*
*	*	*ped	*	*
!LO:N:vis=2	!	!	!	!
8G#X/L	2G#\	16eee\LL	.	.
.	.	16eee\	.	.
8e 8d 8B-/	.	16eee\	.	.
.	.	16eee\JJ	.	.
8e 8d 8B-/	.	16eee\LL	.	.
.	.	16eee\	.	.
8eJ 8d 8B-/	.	16eee\	.	.
.	.	16eee\JJ	.	.
8G#/L	4G#\	16eee\LL	.	.
.	.	16eee\	.	.
8eJ 8d 8B-/	.	16eee\	.	.
.	.	16eee\JJ	.	.
*	*	*Xped	*	*
*v	*v	*	*	*
=76	=76	=76	=76
*	*8va	*	*
*^	*	*	*
8Gn/L	4Gn\	16bbb-X\LL	.	.
.	.	16ccc#X\	1	.
!LO:SIC:v:s=8eJ 8c# 8B-X/	!	!	!	!
8e#XJ 8c 8B-X/	.	16ccc#\	3	.
.	.	16ccc#\JJ	2	.
8F#X/L	4F#\	16ddd\LL	1	.
.	.	16aaa\	4	.
8dJ 8A/	.	16aaa\	.	.
.	.	16aaa\JJ	.	.
8Fn/L	4Fn\	16aaa-X\LL	4	.
.	.	16bbn\	1	.
8dJ 8G 8F/	.	16bb\	3	.
.	.	16bb\JJ	2	.
=77	=77	=77	=77	=77
!LO:N:vis=2	!	!	!	!
8E/L	2E\	16ccc\LL	.	.
.	.	16ggg\	.	.
8c 8G/	.	16aaan\	.	.
.	.	16ggg\JJ	.	.
8c 8G/	.	16cccc\LL	.	.
!	!	!LO:SIC:v:s=16bbbn\	!	!
.	.	16bbb-\	.	.
8cJ 8G/	.	16aaa\	.	.
.	.	16ggg\JJ	.	.
!	!	!	!	!LO:HP:t=cres
8E/L	4E\	16eeee\LL	.	<
.	.	16dddd\	.	.
8cJ 8G/	.	16cccc\	.	.
!	!	!LO:SIC:v:s=16bbbn\JJ	!	!
.	.	16bbb-\JJ	.	.
*v	*v	*	*	*
!!linebreak:original
=78	=78	=78	=78
*	*ped	*	*
8d: 8A: 8F:\	8aaa`\	.	.
*	*Xtuplet	*	*
*	*X8va	*	*
!	!LO:TX:b:i:t=leggiero.	!	!
!	!LO:TX:a:t=loco	!	!
8r	(24fff\LL	.	.
.	24ggg\	.	.
.	24eee\JJ	.	.
4r	24ddd\LL	.	.
.	24eee\	.	.
.	24ccc\JJ	.	.
!	!LO:SIC:v:s=24bbn\LL	!	!
.	24bb-\LL	.	.
.	24ccc\	.	.
.	24aa\JJ	.	.
4r	24gg\LL	.	.
.	24aa\	.	.
.	24ff\JJ	.	.
.	24ee\LL	.	.
.	24ff\	.	.
.	24dd\JJ)	.	.
=79	=79	=79	=79
*^	*	*	*
!	!	!	!	!LO:DY:a:Bi:t=rf.
(<8gL 8e/	2G\	2ccSSs\	.	rf
!	!	!	!	!LO:DY:t=%s riten&colon;
8f#XJ 8d#X/	.	.	.	pp
4fn 4dn/)	.	.	.	.
!	!	!LO:TX:t=P:problem=diminuendolike accent	!	!LO:HP:a
4f 4Bn 4G\	4ryy	8..ee^\L	.	.
.	.	32dd\Jkk	.	.
*v	*v	*	*	*
=80	=80	=80	=80
4e 4c\	16cc`\LL	.	.
!	!LO:TX:b:i:t=a tempo .	!	!
.	(16ccc\	.	.
.	16ddd\	.	.
.	16ccc\JJ)	.	.
*clefG2	*	*	*
4g 4e/	16r	.	.
.	(16ccc\LL	.	.
.	16ddd\	.	.
.	16ccc\JJ)	.	.
4a-X 4f/	16cccc\LL	.	.
.	(16ccc\	.	.
.	16ddd\	.	.
.	16ccc\JJ)	.	.
=81	=81	=81	=81
(4an 4f#X/	16r	.	.
.	16ccc\LL	.	.
.	16ddd\	.	.
.	16ccc\JJ	.	.
4b- 4g/	16cccc\LL	.	.
.	16ccc\	.	.
.	16ddd\	.	.
.	16ccc\JJ	.	.
4bn 4g#X/)	16r	.	.
.	16ccc\LL	.	.
.	16ddd\	.	.
.	16ccc\JJ	.	.
!!linebreak:original
=82	=82	=82	=82
8cc 8a\	(16ccc\LL	.	.
.	16aaa\)	.	pp
8r	(16aaa\	.	.
.	16ggg\JJ)	.	.
(8cccL 8aa'\	(16ggg\LL	.	.
.	16fff\)	.	.
8bb- 8gg'\	(16fff\	.	.
.	16eee\JJ)	.	.
8aa 8ff'\	(16eee\LL	.	.
.	16ddd\)	.	.
8ggJ 8ee'\)	(16ddd\	.	.
.	16ccc\JJ)	.	.
=83	=83	=83	=83
(8ffL 8dd'\	(16ccc\LL	.	.
.	16bb-\)	.	.
8ee 8cc'\	(16bb-\	.	.
.	16aa\JJ)	.	.
8dd 8b-'\	(16aa\LL	.	.
.	16gg\)	.	.
8ccJ 8a'\)	(16gg\	.	.
.	16ff#X\JJ)	.	.
8b-L 8g/	(16aa\LL	.	.
.	16gg\	.	.
8ccJ 8a 8d/	16ddd\	.	.
.	16ff#X\JJ)	.	.
=84	=84	=84	=84
8b- 8g/	(16gg\LL	.	.
.	16ddd\)	.	.
8r	(16ddd\	.	.
.	16ccc\JJ)	.	.
(8ffL 8dd'\	(16ccc\LL	.	.
.	16bb-\)	.	.
8ee 8cc'\	(16bb-\	.	.
.	16aa\JJ)	.	.
8dd 8b-'\	(16aa\LL	.	.
!	!	!	!LO:HP:t=decres&colon;
.	16gg\)	.	>
8ccJ 8a'\)	(16gg\	.	.
.	16ff\JJ)	.	.
=85	=85	=85	=85
(8b-L 8g'/	(16ff\LL	.	.
.	16ee\)	.	.
8a 8f'/	(16ee\	.	.
.	16dd\JJ)	.	.
8g 8e'/	(16dd\LL	.	.
.	16cc\)	.	.
8fJ 8d'/)	(16cc\	.	.
.	16bn\JJ)	.	.
8eL 8c/	(16dd\LL	.	.
.	16cc\	.	.
8fJ 8d 8G/	16gg\	.	.
.	16bn\JJ)	.	.
!!linebreak:original
=86	=86	=86	=86
8e 8c/	(16cc\LL	.	<
.	16gg\)	.	.
8r	(16gg\	.	.
.	16ff\JJ)	.	[
8r	(16ff\LL	.	>
.	16ee\)	.	.
8fL 8d 8G/	(16ee\	.	.
.	16dd\JJ)	.	.
8f 8d 8G/	(16dd\LL	.	.
.	16cc\)	.	.
8fJ 8d 8G/	(16cc\	.	.
.	16bn\JJ)	.	]
=87	=87	=87	=87
8e 8c/	(16cc\LL	.	<
.	16aa\)	.	.
8r	(16aa\	.	.
.	16gg\JJ)	.	[
8r	(16gg\LL	.	>
.	16ff\)	.	.
!	!LO:TX:b:i:t=ritenuto.	!	!
8fL 8d 8G/	(16ff\	.	.
.	16ee\JJ)	.	.
8f 8d 8G/	(16ee\LL	.	.
.	16dd\)	.	.
8fJ 8d 8G/	(16cc\	.	.
.	16bn\JJ)	.	]
=88	=88	=88	=88
8e 8c/	8cc\L	.	p
8r	8cc\	.	.
4r	(8e\	.	.
.	8cc\J	.	.
4r	8f\L	.	.
.	8cc\J	.	.
=89	=89	=89	=89
2.r	8g\L	.	pp
.	8cc\	.	.
.	8a\	.	.
!	!LO:TX:b:i:t=rallent&colon;	!	!
.	8cc\	.	.
.	8b-\	.	.
.	8cc\J)	.	.
!!pagebreak:original
*clefF4	*	*	*
=90	=90	=90	=90
!	!LO:TX:b:i:t=a tempo.	!	!
8FL 8FF/	8bn\	.	.
*clefG2	*	*	*
8aJ 8f 8c/	4cc^\	.	.
8aL 8f 8c/	.	.	.
8a 8f 8c/	4ff^\	.	.
8a 8f 8c/	.	.	.
8aJ 8f 8c/	8gg^\	.	.
*clefF4	*	*	*
=91	=91	=91	=91
!	!LO:TX:t=P:problem=diminuendolike accent	!	!
8FL 8FF/	8..gg#X^\L	.	.
*clefG2	*	*	*
8aJ 8f 8c/	.	.	.
.	32aa\Jkk	.	.
8aL 8f 8c/	2cc\	.	sf
8a 8f 8c/	.	.	.
8a 8f 8c/	.	.	.
8aJ 8f 8c/	.	.	.
*clefF4	*	*	*
=92	=92	=92	=92
8FL 8FF/	8ccS\L	.	<
*clefG2	*	*	*
8aJ 8f 8c/	(16dd\L	.	.
.	16ee\JJ	.	.
8aL 8f 8c/	16ff\LL	.	.
.	16gg\	.	.
8a 8f 8c/	16aa\	.	.
.	16bb-\JJ	.	.
8a 8f 8c/	16bbn\LL	.	.
.	16ccc\	.	.
8aJ 8f 8c/	16ddd\	.	.
.	16ccc\JJ)	.	[[
*clefF4	*	*	*
=93	=93	=93	=93
*^	*	*	*
!LO:N:vis=2	!	!	!	!
8C/L	2C\	4.gg\	.	.
8c 8G 8E/	.	.	.	.
8c 8G 8E/	.	.	.	.
.	.	16qqaa/	.	.
8cJ 8G 8E/	.	(8gg\L	.	.
8C/L	4C\	8ee\	.	.
8cJ 8G 8E/	.	8cc\J)	.	.
*v	*v	*	*	*
=94	=94	=94	=94
8F\L	8bn\	.	.
8fJ 8c 8A\	4cc^\	.	.
8fL 8c 8A\	.	.	.
8fJ 8c 8A\	4ff^\	.	.
8F\L	.	.	.
8fJ 8c 8A\	8gg^\	.	.
!!linebreak:original
=95	=95	=95	=95
!	!LO:TX:t=P:problem=diminuendolike accent	!	!
8F\L	8..gg#X^\L	.	.
8fJ 8c 8A\	.	.	.
.	32aa\Jkk	.	.
8fL 8c 8A\	2ccc^<\	.	.
8fJ 8c 8A\	.	.	.
8F\L	.	.	.
8fJ 8c 8A\	.	.	.
=96	=96	=96	=96
*^	*	*	*
!LO:N:vis=2	!	!	!	!
8C#X/L	2C#\	4.aa^\	.	.
8A 8G 8E/	.	.	.	.
8A 8G 8E/	.	.	.	.
8AJ 8G 8E/	.	(16gg\LL	.	.
.	.	16ff\JJ)	.	.
8C#/L	4C#\	8ee\L	.	.
8AJ 8G 8E/	.	8aa\J	.	.
=97	=97	=97	=97	=97
.	.	(<16qqaa/	.	.
!LO:N:vis=2	!	!	!	!
8D/L	2D\	2dd^\)	.	p
8A 8F/	.	.	.	.
8A 8F/	.	.	.	.
8AJ 8F/	.	.	.	.
!	!	!LO:TX:t=P:problem=diminuendolike accent	!	!LO:HP:a
8Cn/L	4Cn\	8ee^\L	.	.
8B-J 8G/	.	8ccn\J	.	.
=98	=98	=98	=98	=98
!LO:N:vis=2	!	!	!	!
8AA/L	2AA\	8cc`\L	.	rf
8F 8C/	.	(16dd\L	.	.
.	.	16ee\JJ	.	.
8F 8C/	.	16ff\LL	.	.
!	!	!	!	!LO:HP:t=cres
.	.	16gg\	.	<
8FJ 8C/	.	16aa\	.	.
.	.	16bb-\JJ	.	.
8AA/L	4AA\	16ccc\LL	.	.
.	.	16bbn\	.	.
8FJ 8C/	.	16ccc\	.	.
.	.	16ccc#X\JJ)	.	.
=99	=99	=99	=99	=99
!LO:N:vis=2	!	!	!	!
8BB-/L	2BB-\	8..eee\L	.	.
8G 8D/	.	.	.	.
.	.	32ddd\Jkk	.	.
8G 8D/	.	(16cccn\LL	.	.
.	.	16bb-\	.	.
8GJ 8D/	.	16aa\	.	.
.	.	16gg\JJ	.	.
8BB-/L	4BB-\	16ff#X\LL	.	.
.	.	16gg\	.	.
8GJ 8D/	.	16bb-\	.	.
.	.	16dd\JJ)	.	.
!!linebreak:original
=100	=100	=100	=100	=100
.	.	16qqgg/	.	.
!LO:N:vis=2	!	!	!	!
8C/L	2C\	[4ff\	.	.
8A 8F/	.	.	.	.
8A 8F/	.	16ff\LL]	.	.
.	.	(16ccc\	.	.
8AJ 8F/	.	16ddd\	.	.
.	.	16ccc\JJ)	.	.
8C/L	4C\	16ee\LL	.	.
.	.	(16ccc\	.	.
8B-J 8G/	.	16ddd\	.	.
.	.	16ccc\JJ)	.	.
*v	*v	*	*	*
=101	=101	=101	=101
8F 8FF/	4ff\	.	f
16fLL 16c 16A\	.	.	.
16fJJ 16c 16A\	.	.	.
!	!	!	!LO:HP:t=decres
8fL 8c 8A\	4r	.	>
8f 8c 8A\	.	.	.
8f 8c 8A\	4r	.	.
8fJ 8c 8A\	.	.	.
=102||	=102||	=102||	=102||
*k[]	*k[]	*	*
*^	*	*	*
8F/L	2C\	4.g/	.	p
8G/	.	.	.	.
8B/	.	.	.	.
8G/	.	(8ff\L	.	.
8F/	4C\	8ee\	.	.
8G/J	.	8dd\J)	.	.
=103	=103	=103	=103	=103
8E/L	2C\	16ee\LL	.	.
.	.	32r	.	.
.	.	32b\K	.	.
.	.	16qqdd/	.	.
8G/	.	16cc\	.	.
.	.	16a\JJ	.	.
8c/	.	4.g^/	.	.
8G/	.	.	.	.
8E/	4C\	.	.	.
8G/J	.	16cc\LL	.	.
.	.	16ee\JJ	.	.
=104	=104	=104	=104	=104
8F/L	2C\	16dd\LL	.	.
.	.	32r	.	.
.	.	32b\K	.	.
.	.	16qqdd/	.	.
8G/	.	16cc\	.	.
.	.	16a\JJ	.	.
8B/	.	8g`\L	.	.
8G/	.	(16dd\L	.	.
.	.	16ff\JJ)	.	.
8F/	4C\	8aa`\L	.	.
8G/J	.	(16gg\L	.	.
.	.	16ff\JJ)	.	.
!!linebreak:original
=105	=105	=105	=105	=105
8E/L	2C\	2ee\	.	.
8G/	.	.	.	.
8c/	.	.	.	.
8G/	.	.	.	.
8E/	4C\	8..ee\L	.	.
8G/J	.	.	.	.
.	.	32g\Jkk	.	.
*v	*v	*	*	*
=106	=106	=106	=106
8GL 8GG\	4.g/	.	.
16fL 16B 16G\	.	.	.
16fJJ 16B 16G\	.	.	.
8fL 8B 8G\	.	.	.
8f 8B 8G\	(16ff\LL	.	.
.	16ee\JJ	.	.
8f 8B 8G\	16gg\LL	.	.
.	16ff\	.	.
8fJ 8B 8G\	16ee\	.	.
.	16dd\JJ)	.	.
=107	=107	=107	=107
8c 8C\	(16ee\LL	.	.
.	32r	.	.
.	32b\K	.	.
.	16qqdd/	.	.
16eLL 16c 16G\	16cc\	.	.
16eJJ 16c 16G\	16a\JJ)	.	.
8eL 8c 8G\	4g/	.	.
8eJ 8c 8G\	.	.	.
8EL 8EE\	4g#X/	.	.
8dJ 8B 8E\	.	.	.
=108	=108	=108	=108
8FL 8FF\	8a`\L	.	.
8F\J	(16b\L	.	f
.	16cc#X\JJ	.	.
8fL 8d 8A\	16dd\LL	.	.
.	16ee\	.	.
8F\J	16ff\	.	.
.	16ee\JJ	.	.
8fL 8d 8A\	16dd\LL	.	.
.	16aaa\	.	.
8F\J	16fff\	.	.
.	16ddd\JJ)	.	.
=109	=109	=109	=109
8e 8c\	8ccc\L	.	.
!	!LO:TX:t=P:problem=dolny łuk	!	!
4f 4B 4G\	16eeeL &[16gg\	.	.
.	[16ddd\JJ	.	.
.	4ddd] 4gg\&]	.	.
8fL 8B 8G\	.	.	.
8eJ 8c\	8ccc 8gg\	.	.
8r	8r	.	.
==	==	==	==
*-	*-	*-	*-
!!!system-decoration: {g1}
!!!RDF**kern: > = above
!!!RDF**kern: < = below
!!!ENC: Katarzyna Serwa
!!!END: 2022-02-10
!!!ENC: Filip Voros
!!!END: 2022-02-01
